src/icons/face-show.svg

<?xml version="1.0" encoding="UTF-8"?>
<svg width="512px" height="512px" viewBox="0 0 512 512" version="1.1" xmlns="http://www.w3.org/2000/svg" xmlns:xlink="http://www.w3.org/1999/xlink">
    <!-- Generator: Sketch 62 (91390) - https://sketch.com -->
    <title>face-show</title>
    <desc>Created with Sketch.</desc>
    <g id="face-show" stroke="none" stroke-width="1" fill="none" fill-rule="evenodd">
        <path d="M256.002331,96.5 C231.564652,96.5 213.503237,103.538126 201.808761,117.614378 C190.128269,131.699951 184.814717,144.844001 185.877428,157.06517 C186.940138,166.098209 188.002848,174.860908 189.060898,183.362592 C189.060898,184.425302 188.389712,187.077417 187.061324,191.323598 C185.742258,195.583761 185.877428,200.095619 187.462171,204.868494 C189.587592,214.437549 191.708352,220.80915 193.829112,223.997281 C195.963854,227.17609 197.553259,231.440915 198.615969,236.749806 C201.272745,252.149784 204.996893,262.916719 209.769767,269.017981 C214.556625,275.133227 216.947724,281.369659 216.947724,287.741261 L216.947724,292.523457 C216.947724,304.217933 215.885013,311.251398 213.764253,313.637835 C211.638833,316.033594 204.460876,319.352234 192.244368,323.598414 C184.563023,326.325105 176.858372,328.981881 169.125756,331.568742 C128.220728,346.982704 106.705503,359.996245 104.580083,370.618688 C103.517372,378.062322 102.986017,388.680104 102.986017,402.5 L409.013983,402.5 L407.415256,370.618688 C405.289836,360.000906 383.774611,346.987365 342.869583,331.568742 C341.503907,331.135268 340.170858,330.603913 338.879758,329.983999 C313.906064,320.95096 300.892523,315.898425 299.829812,314.835715 C296.646342,312.710294 295.047615,303.677255 295.047615,287.7366 C295.047615,281.369659 297.443375,275.128566 302.225572,269.01332 C306.998446,262.907397 310.717933,252.145123 313.384031,236.745145 C314.446741,231.436254 316.031485,227.171429 318.166227,223.99262 C320.291648,220.804489 322.417069,214.432888 324.537829,204.863833 C326.127233,200.090958 326.257742,195.574439 324.929354,191.318936 C323.610288,187.068095 322.939102,184.420641 322.939102,183.357931 C324.001813,174.851586 325.064523,166.088887 326.127233,157.060509 C327.185283,144.83934 321.876392,131.69529 310.1959,117.609717 C298.501424,103.538126 280.435348,96.5 256.002331,96.5 M256.002331,113.260994 C275.37349,113.260994 288.881099,118.192343 297.294222,128.316058 C306.00099,138.812653 310.084035,147.990183 309.478104,155.098224 C308.415394,164.084652 307.352683,172.814725 306.299295,181.265137 L306.164125,182.299881 L306.164125,183.35327 C306.164125,186.448181 306.858616,189.724871 308.923444,196.320201 C309.025986,196.646471 309.305647,197.522741 308.625139,199.559603 L308.345478,200.37528 L308.16836,201.223584 C305.809889,211.841366 304.20184,214.679921 304.20184,214.679921 C300.822607,219.751101 298.445492,225.894312 296.856087,233.883284 C293.905668,250.989193 290.381944,256.917998 289.016268,258.67986 C281.884922,267.778153 278.2773,277.556953 278.2773,287.727278 C278.2773,306.842082 280.095094,320.326385 288.820505,327.513663 C291.645078,330.137812 295.905241,332.24925 332.391632,345.449232 C333.836545,346.120417 335.435271,346.744992 337.22976,347.350924 C377.920382,362.713614 388.361046,371.728009 390.822059,374.524615 L391.38138,385.71104 L120.101248,385.71104 C120.301671,381.497487 120.585993,377.843254 120.949551,374.794954 C122.92582,372.371228 132.630044,363.24497 174.742274,347.360246 C182.437602,344.778046 190.109625,342.135253 197.758343,339.427206 C216.448995,332.920435 222.540936,328.995864 226.29305,324.772989 C231.634568,318.760285 233.713378,309.717925 233.713378,292.509474 L233.713378,287.727278 C233.713378,277.556953 230.105756,267.778153 222.97441,258.67986 C221.608734,256.917998 218.089671,250.989193 215.060014,233.445149 C213.554508,225.889651 211.172732,219.751101 207.863414,214.801107 C207.79816,214.689243 206.194772,211.841366 203.826979,201.218923 L203.649861,200.370619 L203.3702,199.554942 C202.689692,197.51808 202.969353,196.637149 203.067234,196.310879 C205.132062,189.72021 205.826553,186.44352 205.826553,183.343948 L205.826553,182.290559 L205.691383,181.255815 C204.637995,172.800742 203.579945,164.07533 202.573167,155.592291 C201.911304,147.9762 205.994349,138.803331 214.701117,128.306736 C223.123562,118.192343 236.631171,113.260994 256.002331,113.260994" id="Shape" fill="#000000" fill-rule="nonzero"></path>
    </g>
</svg>

<svg xmlns="http://www.w3.org/2000/svg" width="512" height="512" viewBox="0 0 512 512">
    <path d="M256.002 96.5c-24.437 0-42.499 7.038-54.193 21.114-11.68 14.086-16.994 27.23-15.932 39.451a3947.98 3947.98 0 0 0 3.184 26.298c0 1.062-.671 3.714-2 7.96-1.319 4.26-1.184 8.773.401 13.545 2.126 9.57 4.246 15.941 6.367 19.13 2.135 3.178 3.724 7.443 4.787 12.752 2.657 15.4 6.38 26.167 11.154 32.268 4.787 6.115 7.178 12.352 7.178 18.723v4.782c0 11.695-1.063 18.728-3.184 21.115-2.125 2.396-9.303 5.714-21.52 9.96a1338.68 1338.68 0 0 1-23.118 7.97c-40.905 15.415-62.42 28.428-64.546 39.05-1.063 7.444-1.594 18.062-1.594 31.882h306.028l-1.599-31.881c-2.125-10.618-23.64-23.632-64.545-39.05a30.632 30.632 0 0 1-3.99-1.585c-24.974-9.033-37.987-14.086-39.05-15.148-3.184-2.126-4.782-11.159-4.782-27.1 0-6.366 2.395-12.607 7.178-18.723 4.772-6.106 8.492-16.868 11.158-32.268 1.063-5.309 2.647-9.574 4.782-12.752 2.126-3.189 4.251-9.56 6.372-19.13 1.59-4.772 1.72-9.289.391-13.544-1.319-4.25-1.99-6.898-1.99-7.961a3722.118 3722.118 0 0 0 3.188-26.297c1.058-12.222-4.25-25.366-15.931-39.451-11.695-14.072-29.76-21.11-54.194-21.11m0 16.761c19.371 0 32.88 4.931 41.292 15.055 8.707 10.497 12.79 19.674 12.184 26.782a4180.6 4180.6 0 0 1-3.179 26.167l-.135 1.035v1.053c0 3.095.695 6.372 2.76 12.967.102.326.382 1.203-.299 3.24l-.28.815-.177.849c-2.358 10.617-3.966 13.456-3.966 13.456-3.38 5.071-5.757 11.214-7.346 19.203-2.95 17.106-6.474 23.035-7.84 24.797-7.131 9.098-10.739 18.877-10.739 29.047 0 19.115 1.818 32.6 10.544 39.787 2.824 2.624 7.084 4.735 43.57 17.935 1.446.671 3.044 1.296 4.839 1.902 40.69 15.363 51.131 24.377 53.592 27.174l.56 11.186h-271.28c.2-4.214.484-7.868.848-10.916 1.976-2.424 11.68-11.55 53.792-27.435a1472.507 1472.507 0 0 0 23.016-7.933c18.691-6.507 24.783-10.431 28.535-14.654 5.342-6.013 7.42-15.055 7.42-32.264v-4.782c0-10.17-3.607-19.949-10.739-29.047-1.365-1.762-4.884-7.69-7.914-25.235-1.505-7.555-3.887-13.694-7.197-18.644-.065-.112-1.668-2.96-4.036-13.582l-.177-.848-.28-.816c-.68-2.037-.4-2.918-.303-3.244 2.065-6.59 2.76-9.867 2.76-12.967v-1.053l-.136-1.035a4487.659 4487.659 0 0 1-3.118-25.664c-.662-7.616 3.421-16.789 12.128-27.285 8.423-10.115 21.93-15.046 41.301-15.046"/>
</svg>
